X: 1
T:The Glen Cottage Number Two
M:2/4
L:1/16
Q:150
S:Irish Traditional    Arranged by John Layton 14/2/01
R:Polka
O:Ireland
B:Mally - 100 Irish Polkas
K:G
e2A2 A2Bd|efed B2d2|e2A2 A2BA|G3A B2d2|e2A2 A2Bd|
efed B2d2|e2a2 efed|B2A2 A4:|:e3d e2fg|a2e2 fedB|
d3e d2ef|g2e2 fed2|e3d e2fg|a2e2 fed2|e2a2 efed|B2A2 A4:|
